X:3627
T:Cudgell, The
M:9/8
R:Slip Jig
K:G
GBd gdc B>AB| Gbd GdB "tr"c2B/A/| \
GBd g>ag/f/ gdB| c>dc A<=FA "tr"c2A ::
ded "tr"B.G.G "tr"B.G.G| ded "tr"B.G.G "tr"c2A|\
ded "tr"BGG "tr"BGB| cdc A=FA "tr"c2A|
ded "tr"BGG "tr"BGG| ded "tr="BGB c2B/A/| \
GBd g>ag/g/ gdB| cdc "tr"A=FA c2A|]


